X: 81
T: Chickens and Asparagus
T: Longways for as many as will.
%R: minuet
B: Daniel Wright "Wright's Compleat Collection of Celebrated Country Dances" 1740 p.41
S: http://library.efdss.org/cgi-bin/dancebooks.cgi
Z: 2014 John Chambers <jc:trillian.mit.edu>
N: Repeats modified to match the "Each strain twice" instruction.
M: 3/4
L: 1/8
K: F
% - - - - - - - - - - - - - - - - - - - - - - - - -
|:\
AGF2F2 | ABc2c2 | BAG2G2 | Bcd2d2 |\
AGF2F2 | AB c2A2 | d2B2c2 | F6 :|
|:\
fgf2c2 | c4d2 | gag2d2 | e4c2 |\
dfegfa | dfegfa | bag3f | e6 :|
% - - - - - - - - - - - - - - - - - - - - - - - - -
%%center Each strain twice
%%begintext align
%% The 1st Cu. sett and cast off and Minuet thro' the 3d
%% Cu .| and cast off below the 3d Cu. and Minuet up to
%% the top :| Then the 1st and 2d Men lead thro' the two
%% Wo. and the two Wo. lead quick thro' the Men .|
%% Then the 1st Cu. whole figure thro' the 2d Cu.
%% and cast of quick.
%%endtext
% - - - - - - - - - - - - - - - - - - - - - - - - -
%%sep 2 4 300
